Origami/16x16/apps/appcode.svg

<svg width="16" height="16" version="1" xmlns="http://www.w3.org/2000/svg">
 <path d="m8 0h-7.2c-0.4432 0-0.8 0.3568-0.8 0.8v7.2h8z" style="fill:#14ddb1"/>
 <path d="m8 0h7.2c0.4432 0 0.8 0.3568 0.8 0.8v7.2h-8z" style="fill:#2086e7"/>
 <path d="m8 16h-7.2c-0.4432 0-0.8-0.3568-0.8-0.8v-7.2h8z" style="fill:#2086e7"/>
 <path d="m8 16h7.2c0.4432 0 0.8-0.3568 0.8-0.8v-7.2h-8z" style="fill:#14ddb1"/>
 <rect x="2" y="2" width="12" height="12" style="fill:#3f3f3f"/>
 <path d="m9.507121 6.999879s0 0.500002-1 0.500002c-0.999999 0-0.999999-1.000001-0.999999-2.000002 0-0.9999985 0-1.999999 0.999999-1.999999 1 0 1 0.499999 1 0.499999" style="fill:none;stroke-linecap:round;stroke-linejoin:bevel;stroke-width:.99999994;stroke:#ffffff"/>
 <path d="m3.5071212 5.999879h2m-1.99995 1.5v-3m1.99995 3v-3m-2 0s0-1.0000005 1-1.0000005 1 1.0000005 1 1.0000005" style="fill:none;stroke-linecap:round;stroke-linejoin:bevel;stroke-width:.99999994;stroke:#ffffff"/>
 <path d="m3.5071212 11.5h3.9999998" style="fill:none;stroke-linecap:round;stroke:#ffffff"/>
</svg>

<svg xmlns="http://www.w3.org/2000/svg" width="16" height="16" version="1">
 <path style="fill:#14ddb1" d="M 8,0 H 0.8 C 0.3568,0 0,0.3568 0,0.8 V 8 h 8 z"/>
 <path style="fill:#2086e7" d="m 8,0 h 7.2 C 15.6432,0 16,0.3568 16,0.8 V 8 H 8 Z"/>
 <path style="fill:#2086e7" d="M 8,16 H 0.8 C 0.3568,16 0,15.6432 0,15.2 V 8 h 8 z"/>
 <path style="fill:#14ddb1" d="m 8,16 h 7.2 C 15.6432,16 16,15.6432 16,15.2 V 8 H 8 Z"/>
 <rect style="fill:#3f3f3f" width="12" height="12" x="2" y="2"/>
 <path style="fill:none;stroke:#ffffff;stroke-width:0.99999994;stroke-linecap:round;stroke-linejoin:bevel" d="m 9.507121,6.999879 c 0,0 0,0.500002 -1,0.500002 -0.999999,0 -0.999999,-1.000001 -0.999999,-2.000002 0,-0.9999985 0,-1.999999 0.999999,-1.999999 1,0 1,0.499999 1,0.499999"/>
 <path style="fill:none;stroke:#ffffff;stroke-width:0.99999994;stroke-linecap:round;stroke-linejoin:bevel" d="m 3.5071212,5.999879 h 2 m -1.99995,1.5 v -3 m 1.99995,3 v -3 m -2,0 c 0,0 0,-1.0000005 1,-1.0000005 1,0 1,1.0000005 1,1.0000005"/>
 <path style="fill:none;stroke:#ffffff;stroke-linecap:round" d="M 3.5071212,11.5 H 7.507121"/>
</svg>
